icons/OpenLotus/actions/22/step_object_SoftBody.svg

<?xml version="1.0" encoding="UTF-8" standalone="no"?>
<!-- Created with Inkscape (http://www.inkscape.org/) -->

<svg
   xmlns:dc="http://purl.org/dc/elements/1.1/"
   xmlns:cc="http://creativecommons.org/ns#"
   xmlns:rdf="http://www.w3.org/1999/02/22-rdf-syntax-ns#"
   xmlns:svg="http://www.w3.org/2000/svg"
   xmlns="http://www.w3.org/2000/svg"
   xmlns:sodipodi="http://sodipodi.sourceforge.net/DTD/sodipodi-0.dtd"
   xmlns:inkscape="http://www.inkscape.org/namespaces/inkscape"
   width="22.000002"
   height="22"
   viewBox="0 0 22.000002 22"
   version="1.1"
   id="main"
   inkscape:version="0.92+devel (342812bdbc, 2017-09-26, custom)"
   sodipodi:docname="step_object_SoftBody.svg">
  <defs
     id="ol-defs">
    <style
       id="current-color-scheme"
       type="text/css">
      .ColorScheme-Text {
        color:#f2f2f2;
      }
      </style>
  </defs>
  <sodipodi:namedview
     id="base"
     pagecolor="#002466"
     bordercolor="#ffffff"
     borderopacity="0.30"
     inkscape:pageopacity="1"
     inkscape:pageshadow="0"
     inkscape:zoom="13.140625"
     inkscape:document-units="px"
     inkscape:current-layer="main"
     inkscape:document-rotation="0"
     showgrid="false"
     inkscape:showpageshadow="false"
     borderlayer="true"
     inkscape:window-width="1920"
     inkscape:window-height="1017"
     inkscape:window-x="0"
     inkscape:window-y="34"
     inkscape:window-maximized="1"
     units="px"
     inkscape:cx="6.5947884"
     inkscape:cy="8.0269054" />
  <metadata
     id="metadata5">
    <rdf:RDF>
      <cc:Work
         rdf:about="">
        <dc:format>image/svg+xml</dc:format>
        <dc:type
           rdf:resource="http://purl.org/dc/dcmitype/StillImage" />
        <dc:title></dc:title>
      </cc:Work>
    </rdf:RDF>
  </metadata>
  <g
     id="g1429"
     inkscape:label="#step_object_SoftBody">
    <path
       style="fill:none;stroke:none;stroke-width:1"
       d="M 0,0 H 22.000001 V 22 H 0 Z"
       id="boundary"
       inkscape:label="#boundary"
       inkscape:connector-curvature="0" />
    <path
       inkscape:label="#"
       inkscape:connector-curvature="0"
       id="path842"
       d="m 10.957032,3.0136583 c -2.66607,0.025259 -5.318051,0.7229348 -7.957031,2.0182182 3.10652,4.9947265 2.04843,8.2149655 0,11.9806105 5.61051,2.974736 10.96726,2.341072 16,0 -2.50756,-3.873521 -2.72179,-7.1911117 0,-11.9806105 C 16.303246,3.6355466 13.623103,2.9883972 10.957032,3.0136583 Z m -0.242187,1.012034 c 0.878716,-0.025019 1.772692,0.04904 2.68164,0.2105967 C 13.10688,5.3992938 12.881263,6.559005 12.732423,7.7150341 12.294939,7.6754282 11.854549,7.6438293 11.404298,7.6331367 10.696257,7.6163139 9.9658,7.6541427 9.222657,7.7189378 9.075644,6.5758637 8.852846,5.4290826 8.56836,4.2791884 9.278105,4.1471779 9.991462,4.0462958 10.714845,4.0256923 Z m 3.658203,0.4270433 c 1.070258,0.2627438 2.159849,0.6333941 3.275391,1.1329326 C 17.158114,6.528091 16.790959,7.4735349 16.54297,8.4150732 15.626844,8.1740263 14.691553,7.9705646 13.72461,7.8359325 13.869887,6.7146251 14.089521,5.5863571 14.373048,4.4527356 Z m -6.785156,0.02535 C 7.866673,5.5965945 8.084353,6.7099208 8.228517,7.816432 7.339811,7.9392712 6.4161421,8.1429785 5.4707041,8.4033731 5.2096201,7.509957 4.833152,6.574471 4.328126,5.5954174 5.408874,5.1344375 6.4929772,4.7526598 7.587892,4.4780856 Z m 3.421875,4.1514849 c 0.550325,-4.853e-4 1.089342,0.023941 1.61914,0.072143 -0.147659,1.5882425 -0.157458,3.1692185 -0.02148,4.7403755 -1.045815,0.09397 -2.130561,0.09558 -3.257813,-0.002 0.135578,-1.569188 0.123816,-3.148284 -0.023437,-4.7345247 0.571636,-0.050159 1.133269,-0.075568 1.683594,-0.076047 z M 8.332032,8.8070169 C 8.473558,10.328893 8.484463,11.839927 8.35547,13.340696 7.503661,13.221028 6.6168651,13.022714 5.7050791,12.769354 5.7607991,12.494269 5.8214056,12.22255 5.8535166,11.932817 5.9419866,11.134579 5.8888466,10.278252 5.7089854,9.3744576 6.6110264,9.1241167 7.488637,8.9265444 8.332032,8.8070169 Z m 5.289063,0.017552 c 0.929554,0.1326773 1.83279,0.3318978 2.722656,0.5693915 -0.196144,1.1341256 -0.214108,2.2593406 -0.04297,3.3675966 -0.883571,0.233763 -1.780353,0.429025 -2.703125,0.55964 -0.126889,-1.488879 -0.115947,-2.986977 0.02344,-4.4966281 z M 5.4628916,13.734591 C 6.4183216,13.99882 7.350551,14.207779 8.248048,14.331282 8.111573,15.397894 7.892494,16.458938 7.607423,17.515581 6.4928908,17.264355 5.4145069,16.90885 4.3574229,16.462596 4.7746399,15.603058 5.1696356,14.70375 5.4628916,13.734589 Z m 11.0273434,0.0059 c 0.236131,0.919094 0.599906,1.823086 1.103516,2.706558 -1.139682,0.471382 -2.218794,0.808488 -3.251953,1.043233 -0.282971,-1.055323 -0.499373,-2.115281 -0.634766,-3.1804 0.954821,-0.132459 1.878134,-0.333132 2.783203,-0.569391 z m -7.25,0.686389 c 1.202533,0.104165 2.360527,0.102008 3.47461,0.002 0.137524,1.086403 0.357724,2.16683 0.642578,3.242799 -1.700352,0.280198 -3.277335,0.271867 -4.769531,0.0351 0.289756,-1.088064 0.513381,-2.181343 0.652343,-3.279848 z"
       style="opacity:0.6;fill:#d0d0d0;fill-opacity:1;stroke:none;stroke-width:0.99919182" />
  </g>
</svg>

<svg xmlns="http://www.w3.org/2000/svg" viewBox="0 0 22 22">
  <defs id="defs3051">
    <style type="text/css" id="current-color-scheme">
      .ColorScheme-Text {
        color:#f2f2f2;
      }
      </style>
  </defs>
 <path 
     style="fill:currentColor;fill-opacity:1;stroke:none" 
     d="M 10.957031 2.9785156 C 8.2909611 3.0038181 5.63898 3.70262 3 5 C 6.10652 10.00281 5.04843 13.22826 3 17 C 8.61051 19.97955 13.96726 19.34486 19 17 C 16.49244 13.12021 16.27821 9.79725 19 5 C 16.303245 3.60141 13.623102 2.9532131 10.957031 2.9785156 z M 10.714844 3.9921875 C 11.59356 3.9671312 12.487536 4.04131 13.396484 4.203125 C 13.106879 5.3680122 12.881262 6.5296003 12.732422 7.6875 C 12.294938 7.6478327 11.854548 7.6161813 11.404297 7.6054688 C 10.696256 7.5886227 9.9658001 7.6265078 9.2226562 7.6914062 C 9.0756436 6.5464863 8.8528455 5.3978488 8.5683594 4.2460938 C 9.2781043 4.113869 9.9914609 4.0128246 10.714844 3.9921875 z M 14.373047 4.4199219 C 15.443305 4.6830915 16.532896 5.0543423 17.648438 5.5546875 C 17.158114 6.4986373 16.790958 7.4456102 16.542969 8.3886719 C 15.626843 8.147235 14.691552 7.9434436 13.724609 7.8085938 C 13.869886 6.6854725 14.08952 5.5553789 14.373047 4.4199219 z M 7.5878906 4.4453125 C 7.8666712 5.5656328 8.0843514 6.6807596 8.2285156 7.7890625 C 7.3398096 7.9120997 6.4161402 8.1161369 5.4707031 8.3769531 C 5.2096182 7.4820912 4.8331505 6.5450917 4.328125 5.5644531 C 5.4088726 5.1027271 6.4929762 4.720332 7.5878906 4.4453125 z M 11.009766 8.6035156 C 11.560091 8.6030297 12.099108 8.6275056 12.628906 8.6757812 C 12.481247 10.266594 12.471452 11.850129 12.607422 13.423828 C 11.561607 13.517952 10.476862 13.519509 9.3496094 13.421875 C 9.485188 11.850148 9.4734224 10.268496 9.3261719 8.6796875 C 9.8978079 8.6294494 10.459441 8.6040016 11.009766 8.6035156 z M 8.3320312 8.78125 C 8.4735577 10.305589 8.4844646 11.819068 8.3554688 13.322266 C 7.5036603 13.202405 6.6168641 13.00377 5.7050781 12.75 C 5.7608017 12.474469 5.8214042 12.202311 5.8535156 11.912109 C 5.9419847 11.112579 5.8888444 10.254866 5.7089844 9.3496094 C 6.6110252 9.0988629 7.488637 8.9009707 8.3320312 8.78125 z M 13.621094 8.7988281 C 14.550648 8.9317198 15.453884 9.1312624 16.34375 9.3691406 C 16.147606 10.505101 16.129641 11.63214 16.300781 12.742188 C 15.41721 12.97633 14.520428 13.171907 13.597656 13.302734 C 13.470767 11.811445 13.481711 10.310923 13.621094 8.7988281 z M 5.4628906 13.716797 C 6.4183202 13.981453 7.3505492 14.19075 8.2480469 14.314453 C 8.1115717 15.382792 7.8924923 16.445553 7.6074219 17.503906 C 6.49289 17.252275 5.4145056 16.896195 4.3574219 16.449219 C 4.7746391 15.58829 5.1696344 14.687526 5.4628906 13.716797 z M 16.490234 13.722656 C 16.726365 14.643238 17.09014 15.548693 17.59375 16.433594 C 16.454068 16.905739 15.374956 17.243391 14.341797 17.478516 C 14.058826 16.421485 13.842424 15.359811 13.707031 14.292969 C 14.661852 14.160295 15.585165 13.959298 16.490234 13.722656 z M 9.2402344 14.410156 C 10.442768 14.51449 11.600761 14.512376 12.714844 14.412109 C 12.852368 15.50027 13.072568 16.582446 13.357422 17.660156 C 11.65707 17.940808 10.080087 17.932467 8.5878906 17.695312 C 8.8776468 16.605486 9.1012727 15.510439 9.2402344 14.410156 z "
     class="ColorScheme-Text"
     />
</svg>
